X:1
T:Title
%%score { ( 1 3 4 5 ) | ( 2 6 7 8 ) }
L:1/8
M:4/4
K:G
V:1 treble nm="Grand Piano"
V:3 treble 
V:4 treble 
V:5 treble 
V:2 bass 
V:6 bass 
V:7 bass 
V:8 bass 
V:1
 z4 z2[Q:1/4=94] GA | B2 B2 G2 FA | [EG][EG][DF][CE] [B,D]2 GA | B<d c<e d<B A>G | [FA]6 GA | %5
 B2 B2 G2 FA | [CEG][G,EG][G,DF][G,CE] [G,B,D]2 [B,D][B,DE] | %7
 [A,DF]<[DA] [DB][DF] [DA]<[DF] [^CE]>[CE] |[M:3/4] D6 |[M:1/4] Bc |[M:4/4] ddBA GGFE | %11
 G2 F4 [FA][GB] | [Ac][Ac][FA][EG] FEFD | B6 Bc | ddBA GBAG | %15
 E2 [Ec]4 [EB][EA][Q:1/4=91][Q:1/4=88][Q:1/4=85][Q:1/4=82][Q:1/4=79][Q:1/4=76][Q:1/4=73] | %16
[M:41/32] z/ d/4-d/4-d/4-d/4-d/4-d/4-d/-<d/ z/4 z/4 z/4 z/4 z/4 z/4 z/4 z/4 z/4 z/4 z/4 z/4 z/4 z/4 z/4 z/4 z/4 z/4 z/4 z/4 z/4 z/4 z/4 z/4 z/4 z/4 z/4 z/ | %17
[M:3/4] [B,DG]6 |] %18
V:2
 z4 z2 [G,B,][G,C] | [G,D]2 [G,D]2 [G,B,]2 [G,A,C][G,B,D] | %2
 [C,C][C,C][C,C][C,G,] [G,,G,]2[K:treble] [G,B,D][G,CD] | %3
 [G,DG]<[G,B,G] [G,EG]<[G,CG] [G,B,G]<[G,DG][K:bass] [F,D]>[E,^CE] | %4
 [D,D]6 [G,B,][K:treble][G,CF] | [G,DG]2 [G,DG]2 [G,B,D]2 [G,A,D][K:bass][G,B,D] | %6
 C,C,C,C, G,,2 G,,G,, | A,,<[A,,F,] [A,,F,][A,,A,] [A,,F,]<[A,,A,] [A,,G,]>[A,,G,] | %8
[M:3/4] [D,F,]6 |[M:1/4][K:treble] [G,D][G,A,D] | %10
[M:4/4] [G,B,G][G,B,G][G,DG][K:bass][G,CD] [G,B,D][G,B,D][G,B,D][G,B,D] | %11
 [A,CD]2 [A,CD]4 [D,D][D,D] | [D,D][D,D][D,C][D,B,] [D,A,D][D,A,C][D,A,C][D,F,] | %13
 [G,D]6 [G,D][G,A,D] | [G,B,G][G,B,G][G,DG][K:bass][G,CD] [G,B,D][G,D][G,C][G,B,] | %15
 [C,G,C]2 [A,,A,]4 [B,,^G,][C,E,] | %16
[M:41/32] z/ G,/4-G,/4-G,/4-G,/4-G,/-<G,/G,/-[C,-G,C-]/4[C,C]/4-[C,C]/4-[C,C]/4-[C,C]/4-[C,C]/4-[C,C]/-<[C,C]/[D,B,]/ z/4 z/4 z/4 z/4 z/4 z/4 z/4 z/4 z/4 z/4 z/4 z/4 z/ D,3/4 | %17
[M:3/4] G,,6 |] %18
V:3
 x8 | x8 | x8 | x8 | x8 | x8 | x8 | x8 |[M:3/4] x6 |[M:1/4] x2 |[M:4/4] x8 | x8 | x8 | x8 | x8 | %15
 x8 | %16
[M:41/32] z/4 z/4 z/4 z/4 z/4 z/4 z/4 z/4 z/ [Ec]3/4 z/4 z/4 z/4 z/4 z/4 z/4 z/4 z/4 z/4 z/4 z/4 z/4 z/4 z/4 z/4 z/4 z/4 z/4 z/4 z/4 z/4 z/4 z/4 z/4 z/4 z/4 z/ | %17
[M:3/4] x6 |] %18
V:4
 x8 | x8 | x8 | x8 | x8 | x8 | x8 | x8 |[M:3/4] x6 |[M:1/4] x2 |[M:4/4] x8 | x8 | x8 | x8 | x8 | %15
 x8 | %16
[M:41/32] z/ E/4-E/4-E/4-E/4-E/-<E/ z/ [Ge]/4-[Ge]/4-[Ge]/4-[Ge]/4-[Ge]/4-[Ge]/4-[Ge]/-<[Ge]/[Gd]/ z/4 z/4 z/4 z/4 z/4 z/4 z/4 z/4 z/4 z/4 z/4 z/4 z/ [CDA]3/4 | %17
[M:3/4] x6 |] %18
V:5
 x8 | x8 | x8 | x8 | x8 | x8 | x8 | x8 |[M:3/4] x6 |[M:1/4] x2 |[M:4/4] x8 | x8 | x8 | x8 | x8 | %15
 x8 | %16
[M:41/32] (5:4:18D/-D/8-D/64 z/ z/8 z/64 z z/4 z/32 z4 z z/8 [DGB]2- [DGB]/- [DGB]/16 [CDA]2- [CDA]/-[CDA]/16 | %17
[M:3/4] x6 |] %18
V:6
 x8 | x8 | x6[K:treble] x2 | x6[K:bass] x2 | x7[K:treble] x | x7[K:bass] x | x8 | x8 |[M:3/4] x6 | %9
[M:1/4][K:treble] x2 |[M:4/4] x3[K:bass] x5 | x8 | x8 | x8 | x3[K:bass] x5 | x8 | %16
[M:41/32] (5:4:18[B,,G,]/-[B,,G,]/8-[B,,G,]/64 z/ z/8 z/64 z z/4 z/32 z4 z z/8 D,2- D,/- D,/16 D,2- D,/-D,/16 | %17
[M:3/4] x6 |] %18
V:7
 x8 | x8 | x6[K:treble] x2 | x6[K:bass] x2 | x7[K:treble] x | x7[K:bass] x | x8 | x8 |[M:3/4] x6 | %9
[M:1/4][K:treble] x2 |[M:4/4] x3[K:bass] x5 | x8 | x8 | x8 | x3[K:bass] x5 | x8 | %16
[M:41/32] z/4 z/4 z/4 z/4 z/4 z/4 z/4 z/4 z/ .C,3/4 z/4 z/4 z/4 z/4 z/4 z/4 z/4 z/4 z/4 z/4 z/4 z/4 z/4 z/4 z/4 z/4 z/4 z/4 z/4 z/4 z/4 z/4 z/4 z/4 z/4 z/4 z/ | %17
[M:3/4] x6 |] %18
V:8
 x8 | x8 | x6[K:treble] x2 | x6[K:bass] x2 | x7[K:treble] x | x7[K:bass] x | x8 | x8 |[M:3/4] x6 | %9
[M:1/4][K:treble] x2 |[M:4/4] x3[K:bass] x5 | x8 | x8 | x8 | x3[K:bass] x5 | x8 | %16
[M:41/32] z/ B,,/4-B,,/4-B,,/4-B,,/4-B,,/4-B,,/4-B,,/-<B,,/ z/4 z/4 z/4 z/4 z/4 z/4 z/4 z/4 z/4 z/4 z/4 z/4 z/4 z/4 z/4 z/4 z/4 z/4 z/4 z/4 z/4 z/4 z/4 z/4 z/4 z/4 z/4 z/ | %17
[M:3/4] x6 |] %18

